poi/svg/200k_svg/200k_13.svg

<?xml version="1.0" encoding="UTF-8" standalone="no"?>
<svg
   xmlns:dc="http://purl.org/dc/elements/1.1/"
   xmlns:cc="http://creativecommons.org/ns#"
   xmlns:rdf="http://www.w3.org/1999/02/22-rdf-syntax-ns#"
   xmlns:svg="http://www.w3.org/2000/svg"
   xmlns="http://www.w3.org/2000/svg"
   xmlns:sodipodi="http://sodipodi.sourceforge.net/DTD/sodipodi-0.dtd"
   xmlns:inkscape="http://www.inkscape.org/namespaces/inkscape"
   inkscape:version="1.0 (4035a4fb49, 2020-05-01)"
   sodipodi:docname="200k_13.svg"
   id="svg16"
   version="1.2"
   viewBox="0 0 6.1520003 4.312"
   height="1.5211793mm"
   width="2.1702912mm">
  <metadata
     id="metadata20">
    <rdf:RDF>
      <cc:Work
         rdf:about="">
        <dc:format>image/svg+xml</dc:format>
        <dc:type
           rdf:resource="http://purl.org/dc/dcmitype/StillImage" />
      </cc:Work>
    </rdf:RDF>
  </metadata>
  <sodipodi:namedview
     inkscape:current-layer="svg16"
     inkscape:window-maximized="0"
     inkscape:window-y="258"
     inkscape:window-x="494"
     inkscape:cy="1.9253354"
     inkscape:cx="4.4960046"
     inkscape:zoom="5.8410537"
     showgrid="false"
     id="namedview18"
     inkscape:window-height="480"
     inkscape:window-width="784"
     inkscape:pageshadow="2"
     inkscape:pageopacity="0"
     guidetolerance="10"
     gridtolerance="10"
     objecttolerance="10"
     borderopacity="1"
     bordercolor="#666666"
     pagecolor="#ffffff" />
  <title
     id="title2">Qt SVG Document</title>
  <desc
     id="desc4">Generated with Qt</desc>
  <defs
     id="defs6" />
  <g
     transform="translate(-12.628,-14.556)"
     id="g14"
     stroke-linejoin="bevel"
     stroke-linecap="square"
     fill-rule="evenodd"
     stroke-width="1"
     stroke="#000000"
     fill="none">
    <g
       id="g10"
       font-style="normal"
       font-weight="400"
       font-size="8.25px"
       font-family="'MS Shell Dlg 2'"
       stroke="none"
       fill-opacity="1"
       fill="#615f66">
      <path
         id="path8"
         d="m 14.396,14.748 1.512,0.136 -0.088,0.92 -1.496,-0.136 0.072,-0.92 m 3.384,3.984 -0.272,-1.752 0.992,-0.176 0.28,1.736 -1,0.192 m -5.152,-0.328 0.712,-2.544 1.384,0.472 -0.712,2.536 -1.384,-0.464 m 2.504,-1.832 2,0.448 -0.272,1.208 -1.992,-0.432 0.264,-1.224 m 1.592,-1.408 1.528,-0.608 0.36,0.944 -1.504,0.608 -0.384,-0.944"
         fill-rule="evenodd"
         vector-effect="none" />
    </g>
    <g
       id="g12"
       font-style="normal"
       font-weight="400"
       font-size="8.25px"
       font-family="'MS Shell Dlg 2'"
       stroke="none"
       fill-opacity="1"
       fill="#615f66" />
  </g>
</svg>

<?xml version="1.0" encoding="UTF-8" standalone="no"?>
<svg width="11.2889mm" height="11.2889mm"
 viewBox="0 0 32 32"
 xmlns="http://www.w3.org/2000/svg" xmlns:xlink="http://www.w3.org/1999/xlink"  version="1.2" baseProfile="tiny">
<title>Qt SVG Document</title>
<desc>Generated with Qt</desc>
<defs>
</defs>
<g fill="none" stroke="black" stroke-width="1" fill-rule="evenodd" stroke-linecap="square" stroke-linejoin="bevel" >

<g fill="#615f66" fill-opacity="1" stroke="none" transform="matrix(1,0,0,1,0,0)"
font-family="MS Shell Dlg 2" font-size="8.25" font-weight="400" font-style="normal" 
>
<path vector-effect="none" fill-rule="evenodd" d="M14.396,14.748 L15.908,14.884 L15.82,15.804 L14.324,15.668 L14.396,14.748 M17.78,18.732 L17.508,16.98 L18.5,16.804 L18.78,18.54 L17.78,18.732 M12.628,18.404 L13.34,15.86 L14.724,16.332 L14.012,18.868 L12.628,18.404 M15.132,16.572 L17.132,17.02 L16.86,18.228 L14.868,17.796 L15.132,16.572 M16.724,15.164 L18.252,14.556 L18.612,15.5 L17.108,16.108 L16.724,15.164"/>
</g>

<g fill="#615f66" fill-opacity="1" stroke="none" transform="matrix(1,0,0,1,0,0)"
font-family="MS Shell Dlg 2" font-size="8.25" font-weight="400" font-style="normal" 
>
</g>
</g>
</svg>
